shared/images/iconfont/70-kb-iconfont-nav-wallets-24.svg

<svg height="24" viewBox="0 0 24 24" width="24" xmlns="http://www.w3.org/2000/svg"><path d="m23 14h-6a3 3 0 0 0 0 6h6v1.09a1.913 1.913 0 0 1 -1.917 1.91h-17.208a2.87 2.87 0 0 1 -2.875-2.864v-15.272a2.878 2.878 0 0 1 2.875-2.864h16.167c.529 0 .958.427.958.955 0 .527-.43 1.045-.958 1.045h-15.209c-.529 0-.958.336-.958.864 0 .527.43 1.136.958 1.136h16.25c1.059 0 1.917.673 1.917 1.727zm-6.247 2.992c0-.686.558-1.242 1.247-1.242s1.247.556 1.247 1.242-.558 1.242-1.247 1.242a1.245 1.245 0 0 1 -1.247-1.242z"/></svg>

<svg xmlns="http://www.w3.org/2000/svg" width="24" height="24" viewBox="0 0 24 24">
    <path fill="#000" fill-rule="nonzero" d="M23 14h-6a3 3 0 0 0 0 6h6v1.09A1.913 1.913 0 0 1 21.083 23H3.875A2.87 2.87 0 0 1 1 20.136V4.864A2.878 2.878 0 0 1 3.875 2h16.167c.529 0 .958.427.958.955C21 3.482 20.57 4 20.042 4H4.833c-.529 0-.958.336-.958.864 0 .527.43 1.136.958 1.136h16.25C22.142 6 23 6.673 23 7.727V14zm-6.247 2.992c0-.686.558-1.242 1.247-1.242.689 0 1.247.556 1.247 1.242 0 .686-.558 1.242-1.247 1.242a1.245 1.245 0 0 1-1.247-1.242z"/>
</svg>
